icon-themes/colibre_svg/cmd/ar/sc_defaultnumbering.svg

<svg viewBox="0 0 16 16" xmlns="http://www.w3.org/2000/svg"><path d="m.5 2c-.277 0-.5.223-.5.5s.223.5.5.5h9c.277 0 .5-.223.5-.5s-.223-.5-.5-.5zm4 3c-.277 0-.5.223-.5.5s.223.5.5.5h5c.277 0 .5-.223.5-.5s-.223-.5-.5-.5zm-4 5c-.277 0-.5.223-.5.5s.223.5.5.5h9c.277 0 .5-.223.5-.5s-.223-.5-.5-.5zm4 3c-.277 0-.5.223-.5.5s.223.5.5.5h5c.277 0 .5-.223.5-.5s-.223-.5-.5-.5z" fill="#808080"/><path d="m12.9375 1-1.9375 1.5605469.369141.46875c.01941.024061.046431.0482056.082031.0722656.038838.021053.082319.0359019.130859.0449219.048544.00902.10123.00902.15625 0 .055016-.009023.109043-.0340669.164063-.0761719l.839844-.671875c-.009661.150376-.013672.2952478-.013672.4335937v3.1679688h-1.248047v1h3.519531v-1h-1v-5zm.152344 8c-.258352 0-.500876.0368681-.726563.1113281-.225686.071482-.426358.1802299-.601562.3261719-.172235.142964-.315828.323593-.431641.5410156-.115813.2144464-.195694.4669574-.240234.7558594l.570312.097656c.142539.023827.253807.01435.333985-.027343.083147-.041698.147799-.130573.195312-.267579.026729-.089352.064754-.172561.115235-.25.050482-.077442.112324-.144585.183593-.201171.07127-.056586.151147-.1019995.240235-.1347661.089086-.0327667.186064-.0488281.292968-.0488281.249444 0 .443478.0709521.580078.2109372.136601.139985.205079.34708.205079.621094 0 .151899-.019987.297515-.058594.4375-.038605.137007-.09662.27315-.173828.410156-.074239.134028-.166454.269244-.279297.40625-.109874.137007-.239257.281695-.384766.433594l-1.71875 1.773437c-.071272.068504-.120697.144193-.15039.22461-.026727.077439-.041016.150247-.041016.21875v.361328h4v-.642578c0-.107222-.036153-.194244-.107422-.259766-.0683-.065526-.158641-.097656-.271484-.097656h-1.339844c-.115813 0-.24137.01133-.375.035156-.133631.020854-.266761.052057-.400391.09375l1.25586-1.318359c.154417-.160834.301837-.32066.441406-.478516.13957-.160834.2613-.323443.365234-.490234.103936-.169769.185687-.346589.248047-.53125.06236-.187639.09375-.389998.09375-.607422 0-.253165-.043725-.484871-.132812-.693359-.086117-.211467-.208784-.3920953-.369141-.541016-.157387-.1489207-.350485-.2633333-.576172-.34375-.222717-.0833953-.468988-.125-.742187-.125z" fill="#4d82b8"/></svg>

<svg viewBox="0 0 16 16" xmlns="http://www.w3.org/2000/svg">
  <path
     style="fill:#808080"
     d="M 0.5 2 C 0.223 2 0 2.223 0 2.5 C 0 2.777 0.223 3 0.5 3 L 9.5 3 C 9.777 3 10 2.777 10 2.5 C 10 2.223 9.777 2 9.5 2 L 0.5 2 z M 4.5 5 C 4.223 5 4 5.223 4 5.5 C 4 5.777 4.223 6 4.5 6 L 9.5 6 C 9.777 6 10 5.777 10 5.5 C 10 5.223 9.777 5 9.5 5 L 4.5 5 z M 0.5 10 C 0.223 10 0 10.223 0 10.5 C 0 10.777 0.223 11 0.5 11 L 9.5 11 C 9.777 11 10 10.777 10 10.5 C 10 10.223 9.777 10 9.5 10 L 0.5 10 z M 4.5 13 C 4.223 13 4 13.223 4 13.5 C 4 13.777 4.223 14 4.5 14 L 9.5 14 C 9.777 14 10 13.777 10 13.5 C 10 13.223 9.777 13 9.5 13 L 4.5 13 z "
     id="rect2" />
  <path
     style="fill:#4d82b8"
     d="M 12.9375 1 L 11 2.5605469 L 11.369141 3.0292969 C 11.388551 3.0533579 11.415572 3.0775025 11.451172 3.1015625 C 11.49001 3.1226155 11.533491 3.1374644 11.582031 3.1464844 C 11.630575 3.1555044 11.683261 3.1555044 11.738281 3.1464844 C 11.793297 3.1374614 11.847324 3.1124175 11.902344 3.0703125 L 12.742188 2.3984375 C 12.732527 2.5488135 12.728516 2.6936853 12.728516 2.8320312 L 12.728516 6 L 11.480469 6 L 11.480469 7 L 15 7 L 15 6 L 14 6 L 14 1 L 12.9375 1 z M 13.089844 9 C 12.831492 9 12.588968 9.0368681 12.363281 9.1113281 C 12.137595 9.1828101 11.936923 9.291558 11.761719 9.4375 C 11.589484 9.580464 11.445891 9.761093 11.330078 9.9785156 C 11.214265 10.192962 11.134384 10.445473 11.089844 10.734375 L 11.660156 10.832031 C 11.802695 10.855858 11.913963 10.846381 11.994141 10.804688 C 12.077288 10.76299 12.14194 10.674115 12.189453 10.537109 C 12.216182 10.447757 12.254207 10.364548 12.304688 10.287109 C 12.35517 10.209667 12.417012 10.142524 12.488281 10.085938 C 12.559551 10.029352 12.639428 9.9839385 12.728516 9.9511719 C 12.817602 9.9184052 12.91458 9.9023438 13.021484 9.9023438 C 13.270928 9.9023438 13.464962 9.9732959 13.601562 10.113281 C 13.738163 10.253266 13.806641 10.460361 13.806641 10.734375 C 13.806641 10.886274 13.786654 11.03189 13.748047 11.171875 C 13.709442 11.308882 13.651427 11.445025 13.574219 11.582031 C 13.49998 11.716059 13.407765 11.851275 13.294922 11.988281 C 13.185048 12.125288 13.055665 12.269976 12.910156 12.421875 L 11.191406 14.195312 C 11.120134 14.263816 11.070709 14.339505 11.041016 14.419922 C 11.014289 14.497361 11 14.570169 11 14.638672 L 11 15 L 15 15 L 15 14.357422 C 15 14.2502 14.963847 14.163178 14.892578 14.097656 C 14.824278 14.03213 14.733937 14 14.621094 14 L 13.28125 14 C 13.165437 14 13.03988 14.01133 12.90625 14.035156 C 12.772619 14.05601 12.639489 14.087213 12.505859 14.128906 L 13.761719 12.810547 C 13.916136 12.649713 14.063556 12.489887 14.203125 12.332031 C 14.342695 12.171197 14.464425 12.008588 14.568359 11.841797 C 14.672295 11.672028 14.754046 11.495208 14.816406 11.310547 C 14.878766 11.122908 14.910156 10.920549 14.910156 10.703125 C 14.910156 10.44996 14.866431 10.218254 14.777344 10.009766 C 14.691227 9.798299 14.56856 9.6176707 14.408203 9.46875 C 14.250816 9.3198293 14.057718 9.2054167 13.832031 9.125 C 13.609314 9.0416047 13.363043 9 13.089844 9 z "
     id="path6" />
</svg>
